X: 30
T:Bridal Jig
% Nottingham Music Database
S:Trad, arr Phil Rowe
M:6/8
K:G
D|"G"G2G BGB|"D"def "Em"gfg|"Am"ecA "G"dBG|"D7"FAG FED|
"G"GFG BGB|"D"def "Em"gfg|"Am"ecA "G"dBG|"D7"FED G2::
A|"Em"Bee edB|"D"def "Em"g2a|"G"bag "D"agf|"Em"geg "Bm"fdB|
"Em"Bee edB|"D"def "Em"g2a|"G"bag "D"agf| [1"Em"gee e2:|\
 [2"G"g2g gdB||


